X: 16
T: 13. QUADRILLE
B: Sam Bayard, "Hill Country Tunes" 1944 #13
S: Played by Mrs Sarah Armstrong, (near) Derry, PA, Nov 18 1943.
R: jig
Z: 2010 John Chambers <jc:trillian.mit.edu>
M: 6/8
L: 1/8
K: D
A |\
F2A [d2D2]F | A[AG][AF] [AE][AF][AG] |\
[A2F2]A [d2D2]F | A[AG][AF] [A2E2]z |
F2A [d2D2]F | A[AG][AF] [A3E3] |\
c>BA ABc | [d3D3] [dD]z :|
|: e |\
[f2A2]e [d2D2]c | d2c {c}[BD]cd |\
[e2A2]d [c2E2]B | [AD3]BA A2G |
FGA d2F | [AD][AG][AF] [A3E2] |\
cBA ABc | [d3D3] [dD]z :|

%%sep 2 1 500
%%sep 1 1 500

